assets/mantra.svg

<svg width="63" height="63" viewBox="0 0 63 63" fill="none" xmlns="http://www.w3.org/2000/svg">
<rect x="0.0196875" y="0.0196875" width="62.9606" height="62.9606" stroke="#707070" stroke-opacity="0.7" stroke-width="0.039375"/>
<path d="M17.2177 57.6347C11.2201 55.4802 6.86684 50.1188 5.14694 42.7667C4.3658 39.4276 4.14535 33.9152 4.79421 33.9152C5.00831 33.9152 5.58806 35.4273 6.07306 37.2793C7.13781 41.3239 8.96465 45.1291 10.7224 46.9939C13.6456 50.081 20.878 51.2905 25.0486 49.388C28.2995 47.9076 29.6161 44.3796 28.1986 40.9523C27.1086 38.3 24.6327 37.418 20.0212 38.0228C20.0212 38.0228 17.1926 34.961 16.2917 29.5304L19.1896 29.7949C22.6798 30.1163 25.3132 29.3349 26.6803 27.5899C27.9655 25.9456 27.9403 25.3093 26.5103 23.6399C24.4439 21.227 20.7395 21.8381 13.2425 25.8261L9.45614 19.4442L11.0436 18.2283C15.0189 15.1792 21.9237 13.6544 25.8549 14.9585C29.4333 16.1492 32.0604 20.8616 31.3611 24.8369C30.8886 27.5269 28.7466 31.2881 27.0898 32.3402L25.6598 33.2475L27.6316 34.142C30.9832 35.6604 33.0307 34.5011 35.4751 29.6879C38.8583 23.0288 41.0506 21.3089 46.1536 21.3026C48.5286 21.3026 49.3729 21.5483 51.1054 22.7706C55.4272 25.8197 57.7834 32.1261 57.2668 39.2829C56.6116 48.3423 52.3466 53.8422 45.9583 53.8422C42.4556 53.8422 40.2001 52.6074 38.3983 49.7094C36.817 47.1642 36.4642 42.6534 37.3715 40.4358C37.8063 39.3711 37.8881 39.3333 37.9133 40.1838C37.9637 41.7524 39.3812 43.7622 41.0067 44.6063C44.9947 46.679 50.7276 44.0772 52.9893 39.1505C54.7093 35.4146 53.7893 28.2011 51.4268 26.9348C50.9354 26.6702 49.7131 26.4498 48.7115 26.4498C46.5884 26.4498 44.9252 27.987 42.5879 32.0883C41.7816 33.5058 40.4207 35.3392 39.5638 36.1644C38.1779 37.5001 37.6802 37.6576 34.9081 37.6576H31.8022L32.8038 39.9003C34.2402 43.1069 34.1709 48.3234 32.6527 51.4986C31.3108 54.302 28.2049 57.1434 25.7227 57.8364C23.3036 58.5105 19.3723 58.4223 17.2114 57.6473L17.2177 57.6347Z" fill="#96710F"/>
<path d="M29.2641 13.0153C27.8907 10.6592 27.0466 6.26172 27.9663 6.26172C29.05 8.61787 31.2675 10.7283 33.6363 12.1963C37.9013 14.269 42.2232 13.4311 46.9419 9.61972C47.9815 8.78177 48.9012 8.18338 48.9894 8.29678C50.1424 10.0986 52.1394 11.5665 52.7946 13.6581C52.7946 14.5401 49.0146 17.079 46.0347 18.2004C38.6448 20.3424 33.6174 19.492 29.2578 13.0154L29.2641 13.0153Z" fill="#96710F"/>
<path d="M32.9867 7.56638L37.7936 2.20508L43.136 7.18213C41.3089 8.69418 39.986 11.044 37.9007 12.241C36.2501 11.0187 33.7869 9.57597 32.9805 7.57257L32.9867 7.56638Z" fill="#96710F"/>
</svg>

<svg xmlns="http://www.w3.org/2000/svg" width="63" height="63" fill="none" viewBox="0 0 63 63"><rect width="62.961" height="62.961" x=".02" y=".02" stroke="#707070" stroke-opacity=".7" stroke-width=".039"/><path fill="#96710F" d="M17.218 57.635C11.22 55.48 6.867 50.119 5.147 42.767c-.781-3.34-1.002-8.852-.353-8.852.214 0 .794 1.512 1.28 3.364 1.064 4.045 2.89 7.85 4.648 9.715 2.924 3.087 10.156 4.297 14.327 2.394 3.25-1.48 4.567-5.008 3.15-8.436-1.09-2.652-3.566-3.534-8.178-2.93 0 0-2.828-3.061-3.73-8.492l2.899.265c3.49.321 6.123-.46 7.49-2.205 1.285-1.644 1.26-2.28-.17-3.95-2.066-2.413-5.77-1.802-13.268 2.186l-3.786-6.382 1.588-1.216c3.975-3.049 10.88-4.574 14.81-3.27 3.58 1.191 6.206 5.904 5.507 9.879-.472 2.69-2.614 6.451-4.271 7.503l-1.43.907 1.972.895c3.351 1.518 5.399.36 7.843-4.454 3.383-6.66 5.576-8.38 10.679-8.385 2.375 0 3.219.245 4.951 1.468 4.322 3.049 6.678 9.355 6.162 16.512-.655 9.06-4.92 14.56-11.309 14.56-3.502 0-5.758-1.236-7.56-4.134-1.581-2.545-1.934-7.056-1.027-9.273.435-1.065.517-1.103.542-.252.05 1.568 1.468 3.578 3.094 4.422 3.988 2.073 9.72-.529 11.982-5.456 1.72-3.735.8-10.949-1.562-12.215-.492-.265-1.714-.485-2.715-.485-2.124 0-3.787 1.537-6.124 5.638-.806 1.418-2.167 3.251-3.024 4.076-1.386 1.336-1.884 1.494-4.656 1.494h-3.106l1.002 2.242c1.436 3.207 1.367 8.423-.151 11.599-1.342 2.803-4.448 5.644-6.93 6.337-2.42.675-6.35.586-8.512-.189z"/><path fill="#96710F" d="M29.264 13.015c-1.373-2.356-2.217-6.753-1.298-6.753 1.084 2.356 3.301 4.466 5.67 5.934 4.265 2.073 8.587 1.235 13.306-2.576 1.04-.838 1.96-1.437 2.047-1.323 1.153 1.802 3.15 3.27 3.806 5.361 0 .882-3.78 3.421-6.76 4.542-7.39 2.142-12.418 1.292-16.777-5.185z"/><path fill="#96710F" d="m32.987 7.566 4.807-5.36 5.342 4.976c-1.827 1.512-3.15 3.862-5.235 5.059-1.65-1.222-4.114-2.665-4.92-4.668z"/></svg>
